X: 1
T: Humours Of Ballymanus, The
M: 9/8
L: 1/8
R: slip jig
K: Dmaj
A2 A AGF AGF | A2 A AGF Bcd |A2 A AGF AGF | ~B2 B B2 A Bcd :|
|: dfg afd cBA | dfg afd fga | dfg afd cBA | ~B2 B B2 A Bcd :|
|: FAF dAF dAG | FAF dAF Bcd | FAF dAF dAG | ~B2 B B2 A Bcd :|
